X:1
T:Bey guter Zeit
T:André Vierendeels
T:Melody by Georg Vogler (1625) (Soprano voice)
T:Source : Catechismus---Würzburg---J.Volmari---1652. Editor : André Vierendeels (15/10/17).
T:Notes : Original clef : C1, other voices supplied editorially Original note values have been halved Text Middle German
T:Bey guter Zeit
T:©
T:©
C:André Vierendeels
Z:©
%%score [ 1 2 3 ]
L:1/8
Q:1/4=130
M:2/2
K:C
V:1 treble nm="Soprano" snm="S"
V:2 treble-8 nm="Tenor" snm="T"
V:3 bass nm="Bass" snm="B"
V:1
"^1)" D4 A4 | F4 G4 | G2 F2 E4 | !fermata!D4 F2 G2 | A2 c2 B4 | A2- A2 !fermata!A4 | _B2 A2 G2 F2 | %7
w: Bey gu-|ter Zeit|dich schlaf- fen|leg, fol- gend'|Stück lasz kein-|nen _ weg:|dein Vat- ter und|
w: Und eh'|du zeugst|die Kley- der|ausz, durch- such|dein Hertz durch-|kehr dein Hausz,|hin- ein in dein|
 E2 F2 D4 | !fermata!F4 F2 F2 | G4 F2 E2 | D4 C4 | !fermata!D4 A2 A2 | F2 A2 G4 | F4 !fermata!E4 | %14
w: dein Mut- ter|Grüsz, er- laub-|nusz bitt mit|Wor- ten|süsz dein recht|Hand küsz, sag|gut Nacht,|
w: Ge- wis- sen|brech, und guck|was in dem|Du- sen|steckt, un- der|Banck, hin- ter|der Thür,|
 A4 G2 F2 | E2 D2 F2 G2 | E4 !fermata!D4 |] %17
w: und gib auff|ih- * ren Se-|gen acht.|
w: such al- les|auff, bring al- *|les für.|
V:2
"^2)""^1)" A4 c4 | d4 d4 | e2 f2 c4 | !fermata!A4 c2 c2 | c2 e2 d2- d2 | f4 !fermata!e4 | %6
w: Bey gu-|ter Zeit|dich schlaf- fen|leg, fol- gend'|Stück lasz kein- *|nen weg,|
w: Für Chri-|stum dei-|nen Rich- ter|tritt, zum Für-|sprech nimb Ma- ri-|a mit,|
 d2 d2 _B2 d2 | G2 c2 A4 | !fermata!c4 d2 A2 | _B4 A2 c2 | B4 G4 | !fermata!F4 d2 d2 | c2 d2 B4 | %13
w: dein Vat- ter und|dein Mut- ter|Grüsz, er- laub-|nusz bitt mit|Wor- ten|süsz, dein recht|Hand küsz, sag|
w: auff bey- de Knye|da nie- der|fall, danck Gott|umb sei- ne|Ga- ben|all, die gött-|li- che Wol-|
 c2- c2 !fermata!G4 | c4 d2 d2 | c2 _B2 d2 d2 | c4 !fermata!A4 |] %17
w: gut _ Nacht,|und gib auff|ih- * ren Se-|gen acht.|
w: tha- ten such,|im Hert- zen|dei- * nem rech-|ten Buch.|
V:3
"^3)""^1)""^4)" D,4 A,,4 | D,4 G,4 | C,2 F,2 A,4 | !fermata!D,4 F,2 C,2 | F,2 C,2 G,4 | %5
w: Bey gu-|ter Zeit|dich schlaf- fen|leg, fol- gend'|Stück lasz kei-|
w: Umb himmm-|lich Liecht|auch bit- te|sehr, dasz of-|fen- bar was|
 F,4 !fermata!A,4 | G,2 D,2 G,2 D,2 | C,2 F,2 D,4 | !fermata!F,4 D,2 F,2 | G,4 D,2 C,2 | G,4 C,4 | %11
w: nen weg:|dein Vat- ter und|gei Mut- ter|Grüsz, er- laub-|nusz bitt mit|Wor- ten|
w: heim- lich|wer dann dies Liecht|durch Maw- ren|sicht, zeigt al-|les was dar-|hin- ter|
 !fermata!D,4 D,2 D,2 | F,2 D,2 G,4 | F,2- F,2 !fermata!C,4 | F,4 G,2 D,2 | E,2 G,2 D,2 G,2 | %16
w: süsz dein recht|Hand küsz, sag|gut _ Nacht,|und gib auff|ih- * ren Se-|
w: sticht, was ey-|gen Leib ver-|ber- gen wil,|se- hen wir|klar ohn Liecht _|
 A,4 !fermata!D,4 |] %17
w: gen acht.|
w: und Brill.|

